svgs/thin/card-diamond.svg

<svg xmlns="http://www.w3.org/2000/svg" viewBox="0 0 384 512"><!--! Font Awesome Pro 6.1.1 by @fontawesome - https://fontawesome.com License - https://fontawesome.com/license (Commercial License) Copyright 2022 Fonticons, Inc. --><path d="M299.3 244.7C305.6 250.9 305.6 261.1 299.3 267.3L203.3 363.3C197.1 369.6 186.9 369.6 180.7 363.3L84.69 267.3C78.44 261.1 78.44 250.9 84.69 244.7L180.7 148.7C186.9 142.4 197.1 142.4 203.3 148.7L299.3 244.7zM96 256L192 352L288 256L192 160L96 256zM0 64C0 28.65 28.65 0 64 0H320C355.3 0 384 28.65 384 64V448C384 483.3 355.3 512 320 512H64C28.65 512 0 483.3 0 448V64zM16 64V448C16 474.5 37.49 496 64 496H320C346.5 496 368 474.5 368 448V64C368 37.49 346.5 16 320 16H64C37.49 16 16 37.49 16 64z"/></svg>

<svg xmlns="http://www.w3.org/2000/svg" viewBox="0 0 384 512"><!--! Font Awesome Pro 6.4.2 by @fontawesome - https://fontawesome.com License - https://fontawesome.com/license (Commercial License) Copyright 2023 Fonticons, Inc. --><path d="M64 16C37.5 16 16 37.5 16 64V448c0 26.5 21.5 48 48 48H320c26.5 0 48-21.5 48-48V64c0-26.5-21.5-48-48-48H64zM0 64C0 28.7 28.7 0 64 0H320c35.3 0 64 28.7 64 64V448c0 35.3-28.7 64-64 64H64c-35.3 0-64-28.7-64-64V64zm203.3 84.7l96 96c6.2 6.2 6.2 16.4 0 22.6l-96 96c-6.2 6.2-16.4 6.2-22.6 0l-96-96c-6.2-6.2-6.2-16.4 0-22.6l96-96c6.2-6.2 16.4-6.2 22.6 0zM96 256l11.3 11.3 73.4 73.4L192 352l11.3-11.3 73.4-73.4L288 256l-11.3-11.3-73.4-73.4L192 160l-11.3 11.3-73.4 73.4L96 256z"/></svg>
